X:198
T:New May Moon,3voices. JGi.198
M:6/8
L:1/8
Q:3/8=90
S:Joshua Gibbons MS,1823,Tealby,Lincs.
R:jig
O:Tealby,Lincolnshire
Z:VMP/R.Greig, 2009
K:C
[V:1]|:c2Gc2G|A2G GAB|c2c dcd|e2c cde|
[V:2]|:EGc EGc| F2EE2D|EGc DGB|c2EE3|
[V:3]|:C,3C,3|G,3A,3|C,3G,,3|C,2C,C,3|
[V:1]f2fe2e|dec BAG|AGF EFG|A2GG3:|
[V:2]dGG cGG|G2G G^FG|FED CDE|F2EE3:|
[V:3]D,3G,,3|B,,3C,3|F,3G,3|C,2C,C,3:|
[V:1]|:a2a gec|a2ag3|a2a gec|BdBG3|
[V:2]|:f2f ecG|f2f e3|f2f ecA|G^FGG3|
[V:3]|:F,3{A,}[C3C,3]|F,3{A,}[C3C,3]|F,3{A,}[C3C,3]|D,3G,3|
[V:1]a2a gec|edc BAG|ABc d[cg][df]|e2cc3:|
[V:2]GFE DCA,|A,2AG2F|C2GD2F|E2EE3:|
[V:3]F,3{A,}[C3C,3]|C,3G,,3|C,3G,,3|C,2C,C,3:|

